X:1
T:Title
%%score { 1 | 2 }
L:1/8
Q:1/4=90
M:6/8
K:Bb
V:1 treble nm="Grand Piano"
V:2 bass 
V:1
 [DF][_D=E][=DF] FGA | [DB]3 .[EA]3 | [FB][FA][FB] [Gc][GB][EG] | [DF]6 | [DF][_D=E][=DF] FGA | %5
w: J.~H.~Tenney * * * * *|||||
 [DB]3 .[EA]3 | AGA FGA | [DB]6 | A2 A/A/ AGA | [DB]3 .[DF]3 | d2 d/d/ dcB | c6 | %12
w: |||||||
 [DB]2 [DB]/[DB]/ [DB][Ec][Fd] | [Ge]3 .G3 | F2 F/F/ FGA | [DB]6 |] %16
w: ||||
V:2
 [B,,B,][B,,B,][B,,B,] [F,A,E][F,A,E][F,E] | [B,,F,]3 .[C,F,]3 | %2
 [D,B,][D,B,][D,B,] [E,B,][E,B,][E,B,] | [B,,B,]6 | [B,,B,][B,,B,][B,,B,] [F,A,E][F,A,E][F,E] | %5
 [B,,F,]3 .[C,F,]3 | [F,CE][F,CE][F,CE] [F,CE][F,CE][F,CE] | [B,,B,]6 | %8
 [F,CE]2 [F,CE]/[F,CE]/ [F,CE][F,CE][F,CE] | [B,,B,]3 .[B,,B,]3 | %10
 [B,F]2 [B,F]/[B,F]/ [G,B,=E][G,B,E][K:bass][G,B,E] | [F,A,F]6 | %12
 [B,,F,]2 [B,,F,]/[B,,F,]/ [B,,F,][B,,F,][B,,B,] | [E,B,]3 .[E,B,E]3 | %14
 [F,B,D]2 [F,B,D]/[F,B,D]/ [F,CE][F,CE][F,CE] | [B,,B,]6 |] %16

